X:1
T: Miss McCloud's Reel
C:
R:Reel
Q: 232
K:G
M:4/4
L:1/8
|:BA|G2 g2 ed eg|B2 BA Bc BA|G2 g2 ed eg|A2 AG Ac BA|
G2 g2 ed eg|B2 BA Bc d2|e3f ed ef|ge dB A2:|
|:BA|GA Bc dB GA|B2 BA Bc BA|GA Bc dB GG|A2 AG Ac BA|
GA Bc dB GA|B2 BA Bc d2|e3f ed ef|ge dB A2:|
